svgs/sharp-light/circle-camera.svg

<svg xmlns="http://www.w3.org/2000/svg" viewBox="0 0 512 512"><!--! Font Awesome Pro 6.4.2 by @fontawesome - https://fontawesome.com License - https://fontawesome.com/license (Commercial License) Copyright 2023 Fonticons, Inc. --><path d="M256 32a224 224 0 1 1 0 448 224 224 0 1 1 0-448zm0 480A256 256 0 1 0 256 0a256 256 0 1 0 0 512zm60-352l-12-32H208l-12 32H160 128v32V320v32h32H352h32V320 192 160H352 316zm36 32V320H160V192h36 22.2l7.8-20.8 4.2-11.2h51.6l4.2 11.2 7.8 20.8H316h36zm-96 96a32 32 0 1 0 0-64 32 32 0 1 0 0 64z"/></svg>

<svg xmlns="http://www.w3.org/2000/svg" viewBox="0 0 512 512"><!--! Font Awesome Pro 6.6.0 by @fontawesome - https://fontawesome.com License - https://fontawesome.com/license (Commercial License) Copyright 2024 Fonticons, Inc. --><path d="M256 32a224 224 0 1 1 0 448 224 224 0 1 1 0-448zm0 480A256 256 0 1 0 256 0a256 256 0 1 0 0 512zm60-352l-12-32-96 0-12 32-36 0-32 0 0 32 0 128 0 32 32 0 192 0 32 0 0-32 0-128 0-32-32 0-36 0zm36 32l0 128-192 0 0-128 36 0 22.2 0 7.8-20.8 4.2-11.2 51.6 0 4.2 11.2 7.8 20.8 22.2 0 36 0zm-96 96a32 32 0 1 0 0-64 32 32 0 1 0 0 64z"/></svg>
